docs/sample_presets/japanese_fresh.xmp
<?xml version="1.0" encoding="UTF-8"?>
<x:xmpmeta xmlns:x="adobe:ns:meta/" x:xmptk="Adobe XMP Core 7.0-c000 1.000000, 0000/00/00-00:00:00">
  <rdf:RDF xmlns:rdf="http://www.w3.org/1999/02/22-rdf-syntax-ns#">
    <rdf:Description rdf:about=""
      xmlns:crs="http://ns.adobe.com/camera-raw-settings/1.0/"
      crs:Version="14.0"
      crs:ProcessVersion="11.0"
      crs:WhiteBalance="As Shot"
      crs:Exposure2012="+0.50"
      crs:Contrast2012="-15"
      crs:Highlights2012="-20"
      crs:Shadows2012="+30"
      crs:Whites2012="-10"
      crs:Blacks2012="+5"
      crs:Texture="0"
      crs:Clarity2012="-5"
      crs:Dehaze="0"
      crs:Vibrance="+20"
      crs:Saturation="-10"
      crs:ParametricShadows="0"
      crs:ParametricDarks="0"
      crs:ParametricLights="0"
      crs:ParametricHighlights="0"
      crs:ParametricShadowSplit="25"
      crs:ParametricMidtoneSplit="50"
      crs:ParametricHighlightSplit="75"
      crs:Sharpness="40"
      crs:LuminanceSmoothing="0"
      crs:ColorNoiseReduction="25"
      crs:HueAdjustmentRed="0"
      crs:HueAdjustmentOrange="0"
      crs:HueAdjustmentYellow="0"
      crs:HueAdjustmentGreen="0"
      crs:HueAdjustmentAqua="0"
      crs:HueAdjustmentBlue="0"
      crs:HueAdjustmentPurple="0"
      crs:HueAdjustmentMagenta="0"
      crs:SaturationAdjustmentRed="0"
      crs:SaturationAdjustmentOrange="+10"
      crs:SaturationAdjustmentYellow="+5"
      crs:SaturationAdjustmentGreen="0"
      crs:SaturationAdjustmentAqua="0"
      crs:SaturationAdjustmentBlue="+5"
      crs:SaturationAdjustmentPurple="0"
      crs:SaturationAdjustmentMagenta="0"
      crs:LuminanceAdjustmentRed="0"
      crs:LuminanceAdjustmentOrange="0"
      crs:LuminanceAdjustmentYellow="0"
      crs:LuminanceAdjustmentGreen="0"
      crs:LuminanceAdjustmentAqua="0"
      crs:LuminanceAdjustmentBlue="0"
      crs:LuminanceAdjustmentPurple="0"
      crs:LuminanceAdjustmentMagenta="0"
      crs:SplitToningShadowHue="0"
      crs:SplitToningShadowSaturation="0"
      crs:SplitToningHighlightHue="0"
      crs:SplitToningHighlightSaturation="0"
      crs:SplitToningBalance="0"
      crs:ColorGradeMidtoneHue="0"
      crs:ColorGradeMidtoneSat="0"
      crs:ColorGradeShadowLum="0"
      crs:ColorGradeMidtoneLum="0"
      crs:ColorGradeHighlightLum="0"
      crs:ColorGradeBlending="50"
      crs:ColorGradeGlobalHue="0"
      crs:ColorGradeGlobalSat="0"
      crs:ColorGradeGlobalLum="0"
      crs:AutoLateralCA="0"
      crs:LensProfileEnable="0"
      crs:LensManualDistortionAmount="0"
      crs:VignetteAmount="0"
      crs:DefringePurpleAmount="0"
      crs:DefringePurpleHueLo="30"
      crs:DefringePurpleHueHi="70"
      crs:DefringeGreenAmount="0"
      crs:DefringeGreenHueLo="40"
      crs:DefringeGreenHueHi="60"
      crs:PerspectiveUpright="0"
      crs:PerspectiveVertical="0"
      crs:PerspectiveHorizontal="0"
      crs:PerspectiveRotate="0.0"
      crs:PerspectiveAspect="0"
      crs:PerspectiveScale="100"
      crs:PerspectiveX="0.00"
      crs:PerspectiveY="0.00"
      crs:GrainAmount="0"
      crs:PostCropVignetteAmount="0"
      crs:ShadowTint="0"
      crs:RedHue="0"
      crs:RedSaturation="0"
      crs:GreenHue="0"
      crs:GreenSaturation="0"
      crs:BlueHue="0"
      crs:BlueSaturation="0"
      crs:ConvertToGrayscale="False"
      crs:OverrideLookVignette="False"
      crs:ToneCurveName2012="Linear"
      crs:CameraProfile="Adobe Standard"
      crs:CameraProfileDigest="54650A341B5B5CCAE8442D0B43A92BCE"
      crs:HasSettings="True"
      crs:CropTop="0"
      crs:CropLeft="0"
      crs:CropBottom="1"
      crs:CropRight="1"
      crs:CropAngle="0"
      crs:CropConstrainToWarp="0"
      crs:HasCrop="False"
      crs:AlreadyApplied="True">
      <crs:ToneCurvePV2012>
        <rdf:Seq>
          <rdf:li>0, 0</rdf:li>
          <rdf:li>255, 255</rdf:li>
        </rdf:Seq>
      </crs:ToneCurvePV2012>
      <crs:ToneCurvePV2012Red>
        <rdf:Seq>
          <rdf:li>0, 0</rdf:li>
          <rdf:li>255, 255</rdf:li>
        </rdf:Seq>
      </crs:ToneCurvePV2012Red>
      <crs:ToneCurvePV2012Green>
        <rdf:Seq>
          <rdf:li>0, 0</rdf:li>
          <rdf:li>255, 255</rdf:li>
        </rdf:Seq>
      </crs:ToneCurvePV2012Green>
      <crs:ToneCurvePV2012Blue>
        <rdf:Seq>
          <rdf:li>0, 0</rdf:li>
          <rdf:li>255, 255</rdf:li>
        </rdf:Seq>
      </crs:ToneCurvePV2012Blue>
    </rdf:Description>
  </rdf:RDF>
</x:xmpmeta>
